Obsidian-Light/status/scalable/dialog-password-symbolic.svg

<svg height="16" width="16" xmlns="http://www.w3.org/2000/svg" xmlns:xlink="http://www.w3.org/1999/xlink"><linearGradient id="a" gradientUnits="userSpaceOnUse" x1="9" x2="14" y1="56.5" y2="56.5"><stop offset="0" stop-color="#a50000"/><stop offset="1" stop-color="#e73800"/></linearGradient><linearGradient id="b" gradientUnits="userSpaceOnUse" x1="1" x2="6" y1="56.5" y2="56.5"><stop offset="0" stop-opacity=".862745"/><stop offset="1" stop-opacity=".470588"/></linearGradient><g transform="translate(0 -6)"><path d="m1 54h5v5h-5z" fill="url(#b)" transform="matrix(0 1 1 0 0 0)"/><path d="m9 54h5v5h-5z" fill="url(#a)" transform="matrix(0 1 1 0 0 0)"/><path d="m8 6c-2.209139 0-4 1.790861-4 4 0 1.479209.8062088 2.745415 2 3.4375v6.5625l2 2 2-2v-1l-1-1 1-1-1-1 1-1v-1.5625c1.193791-.692085 2-1.958291 2-3.4375 0-2.209139-1.790861-4-4-4zm0 2c.552285 0 1 .4477153 1 1s-.447715 1-1 1-1-.4477153-1-1 .447715-1 1-1z" fill="#bebebe"/></g></svg>

<?xml version="1.0" encoding="UTF-8" standalone="no"?>
<!-- Created with Inkscape (http://www.inkscape.org/) -->

<svg
   xmlns:dc="http://purl.org/dc/elements/1.1/"
   xmlns:cc="http://creativecommons.org/ns#"
   xmlns:rdf="http://www.w3.org/1999/02/22-rdf-syntax-ns#"
   xmlns:svg="http://www.w3.org/2000/svg"
   xmlns="http://www.w3.org/2000/svg"
   xmlns:xlink="http://www.w3.org/1999/xlink"
   xmlns:sodipodi="http://sodipodi.sourceforge.net/DTD/sodipodi-0.dtd"
   xmlns:inkscape="http://www.inkscape.org/namespaces/inkscape"
   width="16"
   height="16"
   id="svg2"
   sodipodi:version="0.32"
   inkscape:version="0.48.1 r9760"
   version="1.0"
   sodipodi:docname="dialog-password-symbolic.svg"
   inkscape:output_extension="org.inkscape.output.svg.inkscape"
   style="display:inline">
  <defs
     id="defs4">
    <linearGradient
       y2="3.5"
       x2="59"
       y1="3.5"
       x1="54"
       gradientTransform="translate(-45,53)"
       gradientUnits="userSpaceOnUse"
       id="linearGradient3829"
       xlink:href="#SpecificGradient"
       inkscape:collect="always" />
    <linearGradient
       id="SpecificGradient"
       x1="10.761708"
       y1="3.9999998"
       x2="10.761708"
       y2="18.011395"
       gradientUnits="userSpaceOnUse">
      <stop
         style="stop-color:#a50000;stop-opacity:1;"
         offset="0"
         id="stop3292" />
      <stop
         style="stop-color:#e73800;stop-opacity:1;"
         offset="1"
         id="stop3294" />
    </linearGradient>
    <linearGradient
       inkscape:collect="always"
       xlink:href="#StandardGradient"
       id="linearGradient3833"
       x1="54"
       y1="3.5"
       x2="59"
       y2="3.5"
       gradientUnits="userSpaceOnUse"
       gradientTransform="translate(-53,53)" />
    <linearGradient
       id="StandardGradient"
       gradientTransform="matrix(0.9984539,0,0,0.9984539,-0.0459776,0.05767558)"
       x1="10.710332"
       y1="1.9963325"
       x2="10.710332"
       y2="18.974037"
       gradientUnits="userSpaceOnUse">
      <stop
         style="stop-color:#000000;stop-opacity:0.86274511;"
         offset="0"
         id="stop3277" />
      <stop
         style="stop-color:#000000;stop-opacity:0.47058824;"
         offset="1"
         id="stop3279" />
    </linearGradient>
  </defs>
  <sodipodi:namedview
     id="base"
     pagecolor="#ffffff"
     bordercolor="#e7e7e7"
     borderopacity="1"
     inkscape:pageopacity="0.0"
     inkscape:pageshadow="2"
     inkscape:zoom="17.367962"
     inkscape:cx="-10.596457"
     inkscape:cy="12.19241"
     inkscape:document-units="px"
     inkscape:current-layer="layer1"
     showgrid="true"
     inkscape:showpageshadow="false"
     showguides="false"
     inkscape:guide-bbox="true"
     inkscape:window-width="1920"
     inkscape:window-height="1028"
     inkscape:window-x="0"
     inkscape:window-y="25"
     inkscape:window-maximized="1"
     inkscape:snap-global="true">
    <sodipodi:guide
       orientation="1,0"
       position="0,112"
       id="guide2383" />
    <sodipodi:guide
       orientation="0,1"
       position="26.278146,128"
       id="guide2385" />
    <sodipodi:guide
       orientation="1,0"
       position="128,54.082119"
       id="guide2387" />
    <sodipodi:guide
       orientation="0,1"
       position="78.156291,0"
       id="guide2389" />
    <sodipodi:guide
       orientation="0,1"
       position="60.863576,64.084768"
       id="guide2391" />
    <inkscape:grid
       type="xygrid"
       id="grid3672"
       visible="true"
       enabled="true"
       empspacing="8"
       snapvisiblegridlinesonly="true" />
  </sodipodi:namedview>
  <metadata
     id="metadata7">
    <rdf:RDF>
      <cc:Work
         rdf:about="">
        <dc:format>image/svg+xml</dc:format>
        <dc:type
           rdf:resource="http://purl.org/dc/dcmitype/StillImage" />
        <dc:title></dc:title>
      </cc:Work>
    </rdf:RDF>
  </metadata>
  <g
     inkscape:label="Icon"
     inkscape:groupmode="layer"
     id="layer1"
     style="display:inline"
     transform="translate(0,-6)">
    <rect
       y="54"
       x="1"
       height="5"
       width="5"
       id="rect3825"
       style="fill:url(#linearGradient3833);fill-opacity:1;stroke:none;display:inline"
       transform="matrix(0,1,1,0,0,0)" />
    <rect
       transform="matrix(0,1,1,0,0,0)"
       style="fill:url(#linearGradient3829);fill-opacity:1;stroke:none;display:inline"
       id="rect3808"
       width="5"
       height="5"
       x="9"
       y="54" />
    <path
       style="opacity:1;color:#000000;fill:#bebebe;fill-opacity:1;fill-rule:nonzero;stroke:none;stroke-width:1;marker:none;visibility:visible;display:inline;overflow:visible;enable-background:accumulate"
       d="m 8,6 c -2.209139,0 -4,1.790861 -4,4 0,1.479209 0.8062088,2.745415 2,3.4375 L 6,20 l 2,2 2,-2 0,-1 -1,-1 1,-1 0,0 -1,-1 1,-1 0,-1.5625 C 11.193791,12.745415 12,11.479209 12,10 12,7.790861 10.209139,6 8,6 z M 8,8 C 8.552285,8 9,8.4477153 9,9 9,9.5522847 8.552285,10 8,10 7.447715,10 7,9.5522847 7,9 7,8.4477153 7.447715,8 8,8 z"
       id="path3745"
       sodipodi:nodetypes="cscccccccccccsccsssc"
       inkscape:connector-curvature="0" />
  </g>
</svg>
